X:652
T: Sean Reid's
Z: Piano Box Version by Martin Fleischmann
H: Created 2015-03-28 /  Last Modified 2015-04-03
R: reel
M: 4/4
L: 1/8
K: Gmaj
"D-Drone"DG GG BG GG | cAFA dG{A}GF | DG ~G2 B3 c |dBFG AGGF |
DGGA ~B3 G | ~c3 A dcAB | ~g3 a gfde |1 fdcA {B}AGGF :|2 fdcA {B}AG G2 |]
~g3 f {a}gfde | ~f3 e fdcA | gfga gfde | fdcA {B}AGGA |
~g3 f {a}gfde | ~f3 g fdef | ~g3 a (3bag {b}ag | fdcA {B}AGGF |]
"variation m. 3-4" DG ~G2 ~B3 d | cAFG AG{A}GF |

